icons/brandfolder.svg

<?xml version="1.0" encoding="UTF-8"?>
<svg width="512px" height="121px" viewBox="0 0 512 121" version="1.1" xmlns="http://www.w3.org/2000/svg" xmlns:xlink="http://www.w3.org/1999/xlink" preserveAspectRatio="xMidYMid">
		<g>
				<path d="M423.764172,25.8089796 L423.764172,95.2018141 C420.792414,96.0702146 417.767474,96.7450088 414.70839,97.2219501 C410.904142,97.745622 407.065889,97.9823595 403.226122,97.9301587 C399.885604,97.9413561 396.561249,97.4661689 393.357642,96.5195465 C390.328465,95.6305912 387.518687,94.1179381 385.108753,92.0787302 C382.731987,90.0095891 380.852445,87.4331508 379.607785,84.5413722 L379.472109,84.2187755 C378.090522,81.0144218 377.393923,77.0380045 377.393923,72.4056236 C377.372312,68.8579568 377.977592,65.3343653 379.181859,61.9972789 C380.302111,58.8605061 382.043496,55.9818908 384.301859,53.5336054 C386.592064,51.1154613 389.354167,49.1930529 392.417234,47.8853515 C395.625327,46.5204818 399.073355,45.8136221 402.556989,45.8050531 L402.959093,45.8071655 C404.120091,45.8071655 405.356553,45.8536054 406.604626,45.9522902 C407.825323,46.0465232 409.034316,46.2564448 410.215329,46.579229 L410.668118,46.7069388 L410.668118,25.8089796 L423.764172,25.8089796 Z M331.644807,47.5428571 C334.547999,48.7921892 337.128694,50.6860224 339.191293,53.0808163 C341.248436,55.5215523 342.769354,58.3675874 343.655329,61.434195 C344.601099,64.6451473 345.093184,67.9717386 345.117974,71.3173478 L345.118186,71.8193197 C345.145624,75.2999502 344.652556,78.7651264 343.655329,82.0999546 C342.762033,85.1296578 341.252104,87.941999 339.220317,90.3604535 C337.16773,92.74209 334.595882,94.6208301 331.702857,95.8519728 C328.314609,97.2398752 324.676437,97.9137571 321.015873,97.8314739 C317.385851,97.9084514 313.779078,97.2345285 310.421769,95.8519728 C307.564582,94.6160191 305.031589,92.7366378 303.020408,90.3604535 C301.011262,87.9258175 299.502177,85.1187219 298.579592,82.0999546 C297.601444,78.9216493 297.094954,75.6179018 297.075293,72.294251 L297.0761,71.8193197 C297.05221,68.303608 297.559083,64.8044258 298.579592,61.44 C299.486289,58.3848037 300.996318,55.5423974 303.020408,53.0808163 C305.042807,50.6927031 307.584331,48.7984739 310.450794,47.5428571 C313.789123,46.1259046 317.39011,45.433407 321.015873,45.5111111 C324.66231,45.4333254 328.284142,46.1256472 331.644807,47.5428571 Z M258.165261,25.7102948 L258.165261,95.0741043 C255.19311,95.9486089 252.165835,96.6234916 249.103673,97.0942404 C245.562753,97.5914789 241.991589,97.8393054 238.416558,97.8360539 L237.650431,97.8314739 C234.309338,97.8449475 230.984375,97.3677175 227.78195,96.4150567 C224.749426,95.5329111 221.936779,94.0217558 219.527256,91.9800454 C217.153903,89.9090405 215.276607,87.3329211 214.032086,84.442529 L213.896417,84.1200907 C212.509025,80.886712 211.812204,76.9102948 211.812204,72.3069388 C211.802776,68.7563758 212.415777,65.2316205 213.623583,61.8927891 C214.7525,58.7618732 216.492939,55.8867953 218.743583,53.4349206 C221.016573,51.0203716 223.760891,49.0979664 226.806712,47.7866667 C230.014466,46.420695 233.462708,45.7137499 236.946455,45.7062409 L237.348571,45.7084807 C238.428299,45.7084807 239.624127,45.7549206 240.994104,45.8536054 C242.21457,45.9496839 243.42339,46.1595755 244.604807,46.4805442 L245.057596,46.608254 L245.057596,25.7102948 L258.165261,25.7102948 Z M454.124263,45.5111111 C457.315809,45.4513781 460.483041,46.0769064 463.412245,47.3454875 C466.037308,48.5096775 468.385767,50.2171079 470.302766,52.3551927 C472.240292,54.5471526 473.7029,57.1165981 474.598458,59.901678 C475.566849,62.9630963 476.042981,66.158865 476.00907,69.3696145 C476.00907,70.6002721 475.956825,71.8251247 475.858141,73.0151474 L475.786757,73.8290249 C475.71737,74.5694331 475.652063,75.1049433 475.573696,75.5751474 L442.920635,75.5751474 L442.920635,75.9582766 C443.193469,79.9811338 444.633107,82.924263 447.193107,84.7528345 C449.753107,86.5814059 453.08517,87.4637642 457.206712,87.4637642 C459.528125,87.5589641 461.851764,87.3402687 464.114649,86.8136054 L470.372426,85.0721088 L472.949841,94.9928345 C467.736784,96.8746999 462.237633,97.8357983 456.698023,97.8345969 L456.161814,97.8314739 C451.517823,97.8314739 447.494966,97.1755102 444.186122,95.8926077 C438.024772,93.6927343 433.292434,88.671102 431.461587,82.3902041 C429.441131,75.6177882 429.457281,68.4006751 431.508027,61.6373696 C432.463912,58.5572573 434.022793,55.6979932 436.093968,53.225941 C438.169025,50.8185209 440.744429,48.8929111 443.640454,47.5834921 C446.944471,46.1439596 450.52103,45.4369654 454.124263,45.5111111 Z M132.02078,44.2220153 L132.539501,44.2220153 C140.55619,44.2220153 147.365442,46.2541497 150.761361,49.644263 C153.867029,52.755737 155.248617,57.7190023 155.248617,65.7414966 L155.248617,94.8825397 L154.530591,95.0980665 C152.451304,95.7064621 149.992658,96.2952906 147.208707,96.8562358 C143.803321,97.4945269 140.347383,97.8214807 136.883672,97.8333107 L136.190839,97.8314739 C133.147628,97.8516688 130.110627,97.5539999 127.129252,96.9433107 C124.615262,96.4562836 122.224704,95.4692655 120.09941,94.0408163 C118.184427,92.7379458 116.638689,90.9622468 115.612154,88.8859864 C114.489474,86.4505307 113.947005,83.7878599 114.027392,81.1073016 C113.935448,78.4070446 114.61614,75.7366402 115.989478,73.4098866 C117.258787,71.3688793 118.995974,69.6595512 121.057234,68.4234014 C123.228401,67.1443598 125.595739,66.2323365 128.063855,65.7240816 C130.61462,65.17562 133.216064,64.8973803 135.825125,64.8939683 C137.700136,64.8939683 139.801542,64.9926531 142.071293,65.1900227 L142.460227,65.1900227 L142.460227,63.6807256 C142.460227,58.392381 138.32127,55.4782766 130.80381,55.4782766 C126.515825,55.4882371 122.272178,56.3464365 118.317279,58.0034467 L118.317279,46.602449 C122.721955,45.0515229 127.353526,44.2473788 132.02078,44.2220153 L132.02078,44.2220153 Z M45.6228796,25.7102445 L46.09161,25.7093473 C49.4877148,25.6961195 52.8781271,25.9895019 56.2213152,26.5868481 C59.1263654,27.0780981 61.9224259,28.0762701 64.4818141,29.5357823 C66.7657735,30.862007 68.6645236,32.7607571 69.9907483,35.0447166 C71.3258957,37.3260771 72.0050794,40.2285714 72.0050794,43.6825397 C72.0214992,45.6259407 71.7134738,47.5584566 71.0936961,49.4004535 C70.5368853,51.0573437 69.7133597,52.6122386 68.6556009,54.0038095 C67.6732346,55.2642445 66.4977177,56.3613936 65.1726077,57.2546032 C64.0189344,58.0625584 62.6970954,58.5984391 61.3064853,58.8219501 L61.3064853,59.5301587 C62.9914264,59.7812235 64.6401958,60.2333683 66.2175057,60.8769161 C68.0521674,61.6165482 69.7421133,62.6737469 71.2097959,64 C72.8325461,65.4980931 74.1357386,67.308741 75.0410884,69.3231746 C76.0930871,71.6951185 76.6338339,74.2605926 76.6298054,76.8527268 L76.6258503,77.2063492 C76.6258503,81.3685261 75.8363719,84.8224943 74.3038549,87.4637642 C72.7609756,90.0826074 70.5595346,92.2520274 67.9183673,93.7563719 C65.0396275,95.3706451 61.8932243,96.4522212 58.6303855,96.9491156 C54.9378383,97.5481 51.2023826,97.8432088 47.4615873,97.8321285 C44.559093,97.8321285 41.5404989,97.7443991 38.5625397,97.5818594 C35.7587302,97.4309297 32.5950113,97.1348753 28.9030385,96.6878912 L28.9030385,26.7435828 C30.8058309,26.4578944 32.9488787,26.202238 35.2810562,26.0370348 L36.4650417,25.9579801 C38.9768447,25.8011284 42.0508893,25.7169842 45.6228796,25.7102445 Z M364.402358,25.7102948 L364.402358,76.82322 C364.375276,78.4824412 364.489856,80.1409469 364.744853,81.7806803 C364.910985,82.8638797 365.306835,83.8990284 365.90585,84.8166893 C366.417715,85.5482919 367.153027,86.0941744 368.001451,86.3724263 C368.989278,86.6694596 370.017831,86.8085591 371.04907,86.7845805 C371.578417,86.7948452 372.107856,86.7696338 372.633832,86.7091156 C373.986395,89.4374603 376.19229,92.1019501 379.901678,95.4746485 L375.764598,96.2909433 C373.854265,96.6625409 372.101832,96.9933284 371.694772,97.0384451 L371.658594,97.0419955 C370.120272,97.1755102 368.80254,97.2393651 367.600907,97.2393651 C362.689887,97.2393651 358.696054,95.8693878 355.73551,93.175873 C352.774966,90.4823583 351.294694,86.000907 351.294694,79.859229 L351.294694,25.7102948 L364.402358,25.7102948 Z M507.890068,46.1090249 L508.615692,46.1090249 C509.107106,46.1022675 509.598261,46.13527 510.084354,46.2077098 L511.634286,46.4515193 L511.361451,57.9802268 C510.680651,57.8855081 509.993818,57.8408833 509.306485,57.846712 L507.704308,57.846712 C506.433286,57.8575469 505.165366,57.974048 503.913651,58.1950113 C502.421844,58.4680664 501.023718,59.115199 499.850159,60.0758277 C498.413157,61.2987318 497.310527,62.8667844 496.645805,64.6327438 C495.809887,66.6470748 495.386122,69.4624943 495.386122,73.0035374 L495.386122,96.757551 L482.179773,96.745941 L482.179773,46.6895238 L495.368707,46.7882086 L495.368707,53.4349206 L496.018866,52.5119274 C497.319184,50.671746 498.062222,50.1086621 499.844354,48.7444898 L500.262313,48.4310204 C502.474763,46.827957 505.159671,46.0106333 507.890068,46.1090249 Z M108.495238,46.09161 L109.226667,46.09161 C109.718081,46.0848525 110.209236,46.1178551 110.695329,46.1902948 L112.251066,46.4341043 L111.972426,57.9628118 C111.291648,57.8678845 110.604799,57.8232587 109.91746,57.8292971 L108.303673,57.8292971 C107.034576,57.8401586 105.768586,57.9566608 104.518821,58.1775964 C103.026159,58.4479527 101.627384,59.0953858 100.455329,60.0584127 C99.0183548,61.2800997 97.917353,62.8486775 97.25678,64.6153288 C96.4208617,66.6238549 95.9970975,69.4450794 95.9970975,72.9861224 L95.9970975,96.7401361 L82.7791383,96.745941 L82.7791383,46.6895238 L96.0377324,46.7882086 L95.9854875,53.4058957 L96.6472562,52.4770975 C97.7549341,50.9144806 98.4497968,50.2785914 99.7186379,49.2991577 L100.879093,48.4136054 C103.087568,46.8114074 105.768541,45.9940375 108.495238,46.09161 Z M295.224308,24.7989116 L299.241361,25.6522449 L297.314104,35.9386848 L295.421678,35.5613605 C294.36231,35.3737951 293.287148,35.290193 292.211519,35.311746 C290.144067,35.2265852 288.105477,35.8198149 286.406531,37.0009977 C284.775329,38.2258503 283.910385,40.7161905 283.910385,44.1991837 L283.910385,46.7127438 L300.425578,46.7127438 C298.911956,47.7605052 297.545333,49.0060843 296.362086,50.4163265 C294.828276,52.2759729 293.583629,54.3562565 292.670113,56.5870295 L283.910385,56.5870295 L283.910385,96.6704762 L270.808526,96.6472562 L270.808526,56.5638095 L262.768617,56.5638095 L262.768617,46.6953288 L270.808526,46.6953288 L270.808526,43.8799093 C270.763511,41.0657435 271.237773,38.2673983 272.207528,35.6252154 C273.064148,33.3440746 274.425503,31.2861659 276.189751,29.6054422 C277.973083,27.939478 280.081969,26.6607062 282.383673,25.8496145 C284.810072,25.0121413 287.35559,24.5750811 289.920475,24.5546473 L291.474286,24.555102 C292.729269,24.5128572 293.98536,24.5945226 295.224308,24.7989116 Z M189.788299,45.5111111 C195.401723,45.5111111 199.685805,47.0552381 202.512834,50.1028571 C205.339864,53.1504762 206.785306,58.0556916 206.785306,64.6559637 L206.785306,96.6472562 L193.578957,96.6472562 L193.578957,68.3885714 C193.578957,64.8185034 192.998458,62.0030839 191.912925,60.0700227 C190.827392,58.1369615 188.760816,57.0456236 185.962812,57.0456236 C184.772864,57.0554786 183.589648,57.2253462 182.444989,57.5506576 C181.173829,57.9167384 180.019617,58.606865 179.09551,59.5533787 C177.999582,60.7252487 177.183822,62.1304998 176.70966,63.6633107 C176.041043,65.8590906 175.735165,68.1492512 175.804082,70.4435374 L175.804082,96.6472562 L162.603537,96.6472562 L162.603537,46.6895238 L175.775057,46.6895238 L175.775057,53.254966 L176.43102,52.2739229 C176.59539,51.9918121 176.792447,51.7303412 177.017957,51.4948611 L177.351692,51.160201 C177.465934,51.0437297 177.609433,50.8946576 177.800998,50.689161 C178.730017,49.7039023 179.774757,48.8345855 180.912472,48.1001361 C182.158098,47.3084046 183.500389,46.6801814 184.906304,46.2309297 C186.485657,45.7357531 188.13324,45.4928277 189.788299,45.5111111 Z M321.015873,55.6756463 C317.306485,55.6756463 314.578141,57.1036735 312.888889,59.919093 C311.199637,62.7345125 310.439184,66.6760998 310.439184,71.8193197 C310.439184,76.9625397 311.263492,80.9621769 312.888889,83.7137415 C314.514286,86.4653061 317.283265,87.9571882 321.015873,87.9571882 C324.748481,87.9571882 327.55229,86.529161 329.212517,83.7137415 C330.872744,80.898322 331.668027,76.9509297 331.668027,71.8193197 C331.668027,66.6877098 330.884354,62.6938776 329.235737,59.919093 C327.58712,57.1443084 324.818141,55.6756463 321.015873,55.6756463 Z M137.073197,72.9280726 C133.810794,72.9280726 131.192744,73.5085714 129.288707,74.6695692 C127.384671,75.8305669 126.322358,77.8507029 126.322358,80.5209977 C126.322358,82.2973243 126.711293,83.6905215 127.483356,84.6599546 C128.196302,85.5930547 129.140867,86.3234918 130.223311,86.7787755 C131.18929,87.1832549 132.208354,87.4451447 133.248526,87.5567151 L133.561179,87.5856689 C134.722177,87.6901587 135.72644,87.7365986 136.579773,87.7365986 C137.585293,87.7352192 138.589021,87.651737 139.580952,87.4869841 L140.517921,87.3287444 C141.113469,87.2264046 141.651398,87.1309448 142.135147,87.045805 L142.431202,86.9877551 L142.431202,73.4737415 L142.129342,73.4273016 C141.351474,73.2937868 140.486531,73.1776871 139.563537,73.0790023 C138.736604,72.9855254 137.905367,72.9351473 137.073197,72.9280726 Z M398.222222,57.1385034 C396.611219,58.0306887 395.222244,59.2748139 394.15873,60.7782313 C393.043786,62.386329 392.242226,64.190332 391.7961,66.0956009 C391.330399,68.0137898 391.080351,69.9774986 391.050287,71.9502335 L391.047256,72.4056236 C390.994888,74.7557409 391.334286,77.0981712 392.051519,79.33678 C392.612861,81.0655925 393.56652,82.6411157 394.837914,83.9401361 C396.026395,85.0870815 397.468138,85.9382065 399.046531,86.4246712 C400.741,86.9325456 402.502143,87.1830194 404.27102,87.1677098 C405.368163,87.1677098 406.401451,87.1212698 407.341859,87.02839 C408.252208,86.9163508 409.15262,86.735803 410.035444,86.4883662 L410.673923,86.3027664 L410.673923,56.6392744 L410.401088,56.5754195 C409.339628,56.2925178 408.261722,56.0753856 407.173515,55.9252608 C406.1285,55.814773 405.078003,55.7643801 404.027211,55.7743311 C402.007984,55.7308052 400.01071,56.2001646 398.222222,57.1385034 Z M232.623311,57.0456236 C230.999093,57.9278848 229.598991,59.1710958 228.530794,60.6795465 C227.414581,62.2862197 226.614711,64.0908533 226.173968,65.9969161 C225.675391,68.0630729 225.425741,70.181484 225.43093,72.3069388 C225.379054,74.6546859 225.71644,76.994811 226.429388,79.2322902 C226.98583,80.9650422 227.940074,82.5435201 229.215782,83.8414512 C230.400485,84.9933528 231.843492,85.8452244 233.424399,86.3259864 C235.118435,86.8364291 236.879677,87.0888738 238.648889,87.0748299 C239.751837,87.0748299 240.785125,87.022585 241.725533,86.9297052 C242.646777,86.8231625 243.557828,86.6432273 244.450016,86.3917146 L245.086621,86.2040816 L245.086621,56.5463946 L244.819592,56.4767347 C243.75643,56.1927225 242.676523,55.9755778 241.586213,55.826576 C240.537466,55.7141174 239.482991,55.6637196 238.428299,55.6756463 C236.408165,55.6300692 234.409913,56.1016567 232.623311,57.0456236 Z M49.1471323,65.4855352 L42.3764172,65.4860771 L42.3764172,86.540771 L42.6840816,86.5872109 C43.6128798,86.7149206 44.6984127,86.8136054 45.9000454,86.8832653 C47.101678,86.9529252 48.1581859,86.9761451 49.2088889,86.9761451 C50.6745451,86.9697393 52.1369533,86.8376758 53.5800454,86.5814059 C55.1039012,86.3154653 56.5694942,85.7850228 57.9105669,85.014059 C59.2812652,84.2234193 60.4357383,83.1068305 61.2716553,81.7632653 C62.2210101,80.1147968 62.6820523,78.2303624 62.6009977,76.3297959 C62.6603697,74.5345879 62.3151595,72.7490178 61.5909297,71.1053061 C60.9393482,69.7421988 59.9377773,68.5763702 58.6884354,67.7268027 C57.3379565,66.8540926 55.8257765,66.261855 54.2418141,65.9853061 C52.5616574,65.6663008 50.8565591,65.4990988 49.1471323,65.4855352 L49.1471323,65.4855352 Z M453.909478,55.3795918 C450.54839,55.3795918 447.95356,56.34322 446.200454,58.2414512 C444.447347,60.1396825 443.396644,62.7925624 443.059955,66.1942857 L443.025125,66.5890249 L463.5922,66.5890249 L463.5922,66.2175057 C463.458685,63.0189569 462.558912,60.412517 460.910295,58.4039909 C459.261678,56.3954649 456.887438,55.3795918 453.909478,55.3795918 Z M42.7189116,35.8806349 L42.4170522,35.9270748 L42.4170522,55.4086168 L47.078458,55.4086168 C48.6374526,55.4203811 50.1935578,55.2725511 51.722449,54.9674376 C53.0924029,54.6975796 54.3900148,54.1417427 55.5305215,53.3362358 C56.6493123,52.5170454 57.5355775,51.4207174 58.1021315,50.155102 C58.7623484,48.5719669 59.0751202,46.8655791 59.0193197,45.1512018 C59.0793685,43.475347 58.7075585,41.8121968 57.9395918,40.3214512 C57.2694802,39.1146974 56.3099972,38.0933766 55.1473923,37.3492971 C54.0021871,36.6319142 52.7252936,36.1503655 51.3915646,35.9328798 C50.0611022,35.701835 48.7132771,35.5853083 47.3629025,35.5845805 C45.8096514,35.5658888 44.2572152,35.6648566 42.7189116,35.8806349 Z" fill="#343333"></path>
				<polygon fill="#39C5EB" fill-rule="nonzero" points="13.2005442 13.2005442 83.7311565 13.2005442 83.7311565 19.0519728 83.7311565 19.1970975 83.7311565 25.094966 76.5387755 25.094966 90.3430385 38.899229 104.135692 25.094966 96.9317007 25.094966 96.9317007 19.1970975 96.9317007 19.0519728 96.9317007 0 0 0 0 120.244535 96.9317007 120.244535 96.9317007 107.043991 13.2005442 107.043991"></polygon>
		</g>
</svg>

<svg xmlns="http://www.w3.org/2000/svg" viewBox="0 0 511.634 120.245">
  <path fill="#343333" d="M423.764 25.809v69.393a71.622 71.622 0 0 1-9.056 2.02c-3.804.524-7.642.76-11.482.708a34.418 34.418 0 0 1-9.868-1.41 22.64 22.64 0 0 1-8.25-4.441 21.003 21.003 0 0 1-5.5-7.538l-.136-.322c-1.381-3.205-2.078-7.181-2.078-11.813a30.122 30.122 0 0 1 1.788-10.409 24.77 24.77 0 0 1 5.12-8.463 24.34 24.34 0 0 1 8.115-5.649 26.064 26.064 0 0 1 10.14-2.08l.402.002c1.161 0 2.398.047 3.646.145 1.22.095 2.43.304 3.61.627l.453.128V25.809zm-92.12 21.734a20.822 20.822 0 0 1 7.547 5.538 22.767 22.767 0 0 1 4.464 8.353 35.921 35.921 0 0 1 1.463 9.883v.502a34.924 34.924 0 0 1-1.463 10.281 22.918 22.918 0 0 1-4.435 8.26 20.544 20.544 0 0 1-7.517 5.492 26.616 26.616 0 0 1-10.687 1.98 26.355 26.355 0 0 1-10.594-1.98 20.207 20.207 0 0 1-7.402-5.492 23.998 23.998 0 0 1-4.44-8.26 34.02 34.02 0 0 1-1.505-9.806l.001-.475a34.94 34.94 0 0 1 1.504-10.379 23.841 23.841 0 0 1 4.44-8.36 20.532 20.532 0 0 1 7.43-5.537 25.635 25.635 0 0 1 10.566-2.032 25.93 25.93 0 0 1 10.629 2.032zM258.166 25.71v69.364c-2.972.875-6 1.55-9.061 2.02-3.541.497-7.112.745-10.687.742l-.767-.005a34.128 34.128 0 0 1-9.868-1.416 22.483 22.483 0 0 1-8.255-4.435 21.055 21.055 0 0 1-5.495-7.537l-.136-.323c-1.387-3.233-2.084-7.21-2.084-11.813a30.388 30.388 0 0 1 1.812-10.414 25.095 25.095 0 0 1 5.12-8.458 24.236 24.236 0 0 1 8.063-5.648 26.024 26.024 0 0 1 10.14-2.08l.402.001c1.08 0 2.275.047 3.645.146 1.22.096 2.43.306 3.61.626l.454.128V25.71zm195.96 19.801a22.32 22.32 0 0 1 9.287 1.834 20.317 20.317 0 0 1 6.89 5.01 21.188 21.188 0 0 1 4.296 7.547 30.331 30.331 0 0 1 1.411 9.468c0 1.23-.052 2.455-.15 3.645l-.072.814c-.07.74-.135 1.276-.213 1.746H442.92v.383c.272 4.023 1.712 6.966 4.272 8.795 2.56 1.828 5.892 2.71 10.014 2.71a25.809 25.809 0 0 0 6.908-.65l6.257-1.74 2.578 9.92a47.833 47.833 0 0 1-16.252 2.842l-.536-.004c-4.644 0-8.667-.655-11.976-1.938a20.399 20.399 0 0 1-12.724-13.503 36.026 36.026 0 0 1 .046-20.753 24.323 24.323 0 0 1 4.586-8.411 21.844 21.844 0 0 1 7.546-5.642 24.961 24.961 0 0 1 10.484-2.073zM132.02 44.222h.519c8.016 0 14.825 2.032 18.221 5.422 3.106 3.112 4.488 8.075 4.488 16.097v29.142l-.718.215c-2.08.608-4.538 1.197-7.322 1.758a57.104 57.104 0 0 1-10.325.977l-.693-.001c-3.043.02-6.08-.278-9.062-.889a19.122 19.122 0 0 1-7.03-2.902 13.439 13.439 0 0 1-4.487-5.155 17.34 17.34 0 0 1-1.585-7.779c-.092-2.7.59-5.37 1.962-7.697a15.134 15.134 0 0 1 5.068-4.987 22.907 22.907 0 0 1 7.007-2.699 37.152 37.152 0 0 1 7.761-.83 72.9 72.9 0 0 1 6.246.296h.39v-1.51c0-5.288-4.14-8.202-11.657-8.202-4.288.01-8.532.868-12.487 2.525v-11.4a41.947 41.947 0 0 1 13.704-2.381zM45.623 25.71h.469c3.396-.014 6.786.28 10.13.877a25.136 25.136 0 0 1 8.26 2.949 15.192 15.192 0 0 1 5.509 5.509c1.335 2.281 2.014 5.184 2.014 8.638a17.467 17.467 0 0 1-.911 5.717 16.062 16.062 0 0 1-2.438 4.604 15.157 15.157 0 0 1-3.483 3.25 9.317 9.317 0 0 1-3.867 1.568v.708c1.685.251 3.334.703 4.912 1.347A16.834 16.834 0 0 1 71.21 64a16.387 16.387 0 0 1 3.831 5.323 18.5 18.5 0 0 1 1.589 7.53l-.004.353c0 4.163-.79 7.616-2.322 10.258a17.415 17.415 0 0 1-6.386 6.292 27.434 27.434 0 0 1-9.288 3.193 68.485 68.485 0 0 1-11.168.883c-2.903 0-5.922-.088-8.9-.25-2.803-.151-5.967-.447-9.659-.894V26.744a82.017 82.017 0 0 1 6.378-.707l1.184-.079c2.512-.157 5.586-.241 9.158-.248zm318.78 0v51.113c-.028 1.66.087 3.318.342 4.958a7.686 7.686 0 0 0 1.16 3.036 4.127 4.127 0 0 0 2.096 1.555 9.793 9.793 0 0 0 3.048.413c.53.01 1.059-.015 1.585-.076 1.352 2.728 3.558 5.393 7.268 8.766l-4.137.816c-1.91.372-3.663.702-4.07.747l-.036.004a46.853 46.853 0 0 1-4.058.197c-4.911 0-8.905-1.37-11.866-4.063-2.96-2.694-4.44-7.175-4.44-13.317V25.71zM507.89 46.11h.726c.491-.007.982.026 1.468.099l1.55.244-.273 11.528c-.68-.094-1.367-.14-2.055-.133h-1.602a22.93 22.93 0 0 0-3.79.348 8.963 8.963 0 0 0-4.064 1.88 11.134 11.134 0 0 0-3.204 4.558c-.836 2.014-1.26 4.83-1.26 8.37v23.755l-13.206-.012V46.69l13.189.098v6.647l.65-.923c1.3-1.84 2.043-2.403 3.825-3.768l.418-.313a12.249 12.249 0 0 1 7.628-2.322zm-399.395-.017h.732c.491-.007.982.026 1.468.098l1.556.244-.279 11.529a13.99 13.99 0 0 0-2.055-.134h-1.613c-1.27.011-2.535.128-3.785.349a8.899 8.899 0 0 0-4.064 1.88 11.07 11.07 0 0 0-3.198 4.557c-.836 2.009-1.26 4.83-1.26 8.371V96.74l-13.218.006V46.69l13.259.098-.053 6.618.662-.929c1.108-1.563 1.803-2.198 3.072-3.178l1.16-.885a12.225 12.225 0 0 1 7.616-2.322zm186.73-21.293 4.016.853-1.927 10.287-1.892-.378a16.515 16.515 0 0 0-3.21-.25 9.485 9.485 0 0 0-5.805 1.69c-1.632 1.225-2.497 3.715-2.497 7.198v2.514h16.516a20.637 20.637 0 0 0-4.064 3.703 23.98 23.98 0 0 0-3.692 6.171h-8.76V96.67l-13.101-.023V56.564h-8.04v-9.869h8.04V43.88a22.895 22.895 0 0 1 1.399-8.255 16.161 16.161 0 0 1 3.982-6.02 17.682 17.682 0 0 1 6.194-3.755 23.679 23.679 0 0 1 7.536-1.295h1.554c1.255-.042 2.511.04 3.75.244zM189.787 45.51c5.614 0 9.898 1.544 12.725 4.592 2.827 3.047 4.272 7.953 4.272 14.553v31.991H193.58V68.39c0-3.57-.58-6.386-1.666-8.319-1.086-1.933-3.152-3.024-5.95-3.024-1.19.01-2.373.18-3.518.505a7.634 7.634 0 0 0-3.35 2.002 10.606 10.606 0 0 0-2.385 4.11 21.101 21.101 0 0 0-.906 6.78v26.204h-13.2V46.69h13.171v6.565l.656-.981c.164-.282.361-.544.587-.78l.334-.334c.114-.116.257-.265.449-.47a16.8 16.8 0 0 1 3.111-2.59 17.212 17.212 0 0 1 3.994-1.87 15.737 15.737 0 0 1 4.882-.719zm131.228 10.165c-3.71 0-6.438 1.428-8.127 4.243-1.69 2.816-2.45 6.757-2.45 11.9 0 5.144.824 9.143 2.45 11.895 1.625 2.751 4.394 4.243 8.127 4.243 3.732 0 6.536-1.428 8.197-4.243 1.66-2.816 2.455-6.763 2.455-11.895 0-5.131-.784-9.125-2.432-11.9-1.649-2.775-4.418-4.243-8.22-4.243zM137.073 72.928c-3.262 0-5.88.58-7.784 1.742-1.904 1.16-2.967 3.18-2.967 5.851 0 1.776.39 3.17 1.161 4.139a6.734 6.734 0 0 0 2.74 2.119 10.82 10.82 0 0 0 3.026.778l.312.029c1.161.104 2.165.15 3.019.15a18.474 18.474 0 0 0 3-.249l.938-.158c.595-.103 1.133-.198 1.617-.283l.296-.058V73.474l-.302-.047a41.304 41.304 0 0 0-2.565-.348 23.985 23.985 0 0 0-2.49-.15zm261.15-15.79c-1.612.893-3 2.137-4.064 3.64a15.558 15.558 0 0 0-2.363 5.318 26.529 26.529 0 0 0-.746 5.854l-.003.456a21.17 21.17 0 0 0 1.005 6.93 11.784 11.784 0 0 0 2.786 4.604 10.524 10.524 0 0 0 4.209 2.485c1.694.508 3.455.758 5.224.743 1.097 0 2.13-.047 3.07-.14.911-.112 1.812-.292 2.694-.54l.639-.185V56.639l-.273-.064c-1.061-.282-2.14-.5-3.227-.65a27.452 27.452 0 0 0-3.147-.15 11.94 11.94 0 0 0-5.805 1.364zm-165.6-.092a12.08 12.08 0 0 0-4.092 3.634 15.4 15.4 0 0 0-2.357 5.317 26.623 26.623 0 0 0-.743 6.31 21.263 21.263 0 0 0 .998 6.925 11.662 11.662 0 0 0 2.787 4.61 10.362 10.362 0 0 0 4.208 2.484c1.694.51 3.456.763 5.225.749 1.103 0 2.136-.052 3.077-.145a17.415 17.415 0 0 0 2.724-.538l.637-.188V56.546l-.267-.07a26.355 26.355 0 0 0-3.234-.65 26.778 26.778 0 0 0-3.158-.15 11.854 11.854 0 0 0-5.805 1.37zm-183.476 8.44h-6.77v21.055l.307.046c.929.128 2.014.227 3.216.296 1.202.07 2.258.093 3.309.093a25.64 25.64 0 0 0 4.371-.395 13.264 13.264 0 0 0 4.33-1.567 9.619 9.619 0 0 0 3.362-3.25A10.031 10.031 0 0 0 62.6 76.33c.06-1.795-.286-3.581-1.01-5.225a8.54 8.54 0 0 0-2.903-3.378 11.993 11.993 0 0 0-4.446-1.742 28.526 28.526 0 0 0-5.095-.5zM453.91 55.38c-3.36 0-5.955.963-7.709 2.861-1.753 1.899-2.803 4.552-3.14 7.953l-.035.395h20.567v-.371c-.133-3.199-1.033-5.805-2.682-7.814-1.648-2.009-4.023-3.024-7-3.024zM42.72 35.88l-.302.047V55.41h4.661a22.849 22.849 0 0 0 4.644-.442 9.927 9.927 0 0 0 3.809-1.63 7.988 7.988 0 0 0 2.571-3.182c.66-1.583.973-3.29.917-5.004a9.781 9.781 0 0 0-1.08-4.83 8.33 8.33 0 0 0-2.792-2.972 10.153 10.153 0 0 0-3.755-1.416 23.62 23.62 0 0 0-4.03-.348 30.767 30.767 0 0 0-4.643.296z"/>
  <path fill="#39c5eb" d="M83.731 19.052V25.095H76.54l13.804 13.804 13.793-13.804h-7.204V0H0v120.245h96.932v-13.201H13.2V13.201h70.53z"/>
</svg>
